lending/img/lend/advantages_1.svg

<svg width="51" height="44" viewBox="0 0 51 44" fill="none" xmlns="http://www.w3.org/2000/svg">
<path fill-rule="evenodd" clip-rule="evenodd" d="M24.1621 0.148438L43.3017 30.8427H37.296C34.2069 30.8427 31.3444 29.2216 29.7555 26.5725L19.1587 8.90442L24.1621 0.148438ZM37.296 28.8887L39.7803 28.8884L24.2352 3.95837L21.4227 8.88042L31.4311 25.5674C32.6445 27.5904 34.8127 28.8426 37.1652 28.8875L37.296 28.8887ZM50.6309 42.743L13.8118 43.0145L16.9049 37.8666C18.496 35.2187 21.3598 33.5999 24.4489 33.6024L45.0511 33.6189L50.6309 42.743ZM18.5798 38.873L17.3006 41.0026L47.3275 40.8434L43.9056 35.572L24.4474 35.5564C22.0884 35.5545 19.8983 36.7681 18.6483 38.7615L18.5798 38.873ZM17.6431 11.3712L0.630859 43.2937L10.7155 43.2488L20.718 25.2377C22.2178 22.5371 22.1905 19.2475 20.6459 16.5723L17.6431 11.3712ZM17.7113 15.398L18.9537 17.5492L19.0181 17.6632C20.1554 19.7229 20.1551 22.2268 19.0098 24.289L9.56265 41.3001L3.89382 41.3255L17.7113 15.398Z" fill="#A5FF14"/>
</svg>

<svg width="51" height="44" fill="none" xmlns="http://www.w3.org/2000/svg"><path fill-rule="evenodd" clip-rule="evenodd" d="M24.162.148l19.14 30.695h-6.006a8.793 8.793 0 01-7.54-4.27L19.159 8.904 24.162.148zm13.134 28.74h2.484L24.235 3.958 21.423 8.88 31.43 25.567a6.84 6.84 0 005.734 3.32l.131.002zm13.335 13.855l-36.82.271 3.094-5.147a8.793 8.793 0 017.544-4.265l20.602.017 5.58 9.124zm-32.051-3.87l-1.28 2.13 30.027-.16-3.421-5.271-19.459-.016a6.839 6.839 0 00-5.799 3.206l-.068.111zm-.937-27.502L.631 43.294l10.085-.045 10.002-18.011a8.793 8.793 0 00-.072-8.666l-3.003-5.2zm.068 4.027l1.243 2.151.064.114a6.839 6.839 0 01-.008 6.626L9.563 41.3l-5.67.026 13.818-25.928z" fill="#A5FF14"/></svg>
